components/Common/Svg/svgs/nativeAppDevelopment.svg

<svg width="90" height="90" viewBox="0 0 90 90" fill="none" xmlns="http://www.w3.org/2000/svg">
<circle opacity="0.7" cx="45" cy="45" r="45" fill="#FFE603"/>
<path fill-rule="evenodd" clip-rule="evenodd" d="M52.5 29.75C53.3284 29.75 54 30.4215 54 31.25V58.7496C54 59.578 53.3284 60.2496 52.5 60.2496H37.5C36.6716 60.2496 36 59.578 36 58.7496V31.25C36 30.4215 36.6716 29.75 37.5 29.75H52.5ZM56 31.25C56 29.317 54.433 27.75 52.5 27.75H37.5C35.567 27.75 34 29.317 34 31.25V58.7496C34 60.6826 35.567 62.2496 37.5 62.2496H52.5C54.433 62.2496 56 60.6826 56 58.7496V31.25ZM46.875 34.3749C46.875 35.4104 46.0355 36.2499 45 36.2499C43.9645 36.2499 43.125 35.4104 43.125 34.3749C43.125 33.3394 43.9645 32.4999 45 32.4999C46.0355 32.4999 46.875 33.3394 46.875 34.3749Z" fill="#161616"/>
</svg>

<svg width="90" height="90" viewBox="0 0 90 90" fill="none" xmlns="http://www.w3.org/2000/svg"><circle opacity=".7" cx="45" cy="45" r="45" fill="#FFE603"/><path fill-rule="evenodd" clip-rule="evenodd" d="M52.5 29.75a1.5 1.5 0 0 1 1.5 1.5v27.5a1.5 1.5 0 0 1-1.5 1.5h-15a1.5 1.5 0 0 1-1.5-1.5v-27.5a1.5 1.5 0 0 1 1.5-1.5h15Zm3.5 1.5a3.5 3.5 0 0 0-3.5-3.5h-15a3.5 3.5 0 0 0-3.5 3.5v27.5a3.5 3.5 0 0 0 3.5 3.5h15a3.5 3.5 0 0 0 3.5-3.5v-27.5Zm-9.125 3.125a1.875 1.875 0 1 1-3.75 0 1.875 1.875 0 0 1 3.75 0Z" fill="#161616"/></svg>
